images/icons/Iconbottlewhite.svg

<svg width="30" height="30" viewBox="0 0 30 30" fill="none" xmlns="http://www.w3.org/2000/svg">
<path fill-rule="evenodd" clip-rule="evenodd" d="M18.1179 4.06252L18.1122 4.0625H11.8867L11.8811 4.06252H10.6245C10.1067 4.06252 9.68697 4.48225 9.68697 5.00002C9.68697 5.51778 10.1067 5.93752 10.6245 5.93752H10.9492V12.2639C5.38457 14.8944 4.58067 22.5649 9.58221 26.2744L9.95096 26.5479C12.9493 28.7717 17.0496 28.7717 20.048 26.5479L20.4167 26.2744C25.4182 22.5649 24.6143 14.8944 19.0497 12.2639V5.93752H19.3745C19.8922 5.93752 20.312 5.51778 20.312 5.00002C20.312 4.48225 19.8922 4.06252 19.3745 4.06252H18.1179ZM9.87054 15.3125H20.1284C19.5631 14.7185 18.8631 14.2197 18.0339 13.8622C17.5125 13.6374 17.1747 13.1239 17.1747 12.556V5.93752H12.8242V12.556C12.8242 13.1239 12.4864 13.6374 11.965 13.8622C11.1358 14.2197 10.4358 14.7185 9.87054 15.3125ZM12.4995 21.25C11.8091 21.25 11.2495 21.8097 11.2495 22.5C11.2495 23.1904 11.8091 23.75 12.4995 23.75C13.1898 23.75 13.7495 23.1904 13.7495 22.5C13.7495 21.8097 13.1898 21.25 12.4995 21.25ZM14.9995 20C14.9995 19.3097 15.5591 18.75 16.2495 18.75C16.9398 18.75 17.4995 19.3097 17.4995 20C17.4995 20.6904 16.9398 21.25 16.2495 21.25C15.5591 21.25 14.9995 20.6904 14.9995 20Z" fill="white"/>
</svg>

<svg width="30" height="30" fill="none" xmlns="http://www.w3.org/2000/svg"><path fill-rule="evenodd" clip-rule="evenodd" d="M18.118 4.063h-7.494a.938.938 0 1 0 0 1.875h.325v6.326c-5.564 2.63-6.368 10.3-1.367 14.01l.369.274a8.475 8.475 0 0 0 10.097 0l.369-.274c5.001-3.71 4.197-11.38-1.367-14.01V5.938h.325a.938.938 0 0 0 0-1.875h-1.257ZM9.87 15.313h10.257a6.338 6.338 0 0 0-2.094-1.45 1.422 1.422 0 0 1-.86-1.307V5.938h-4.35v6.618c0 .568-.338 1.081-.859 1.306-.83.358-1.53.857-2.094 1.45Zm2.628 5.937a1.25 1.25 0 1 0 0 2.5 1.25 1.25 0 0 0 0-2.5ZM15 20a1.25 1.25 0 1 1 2.5 0 1.25 1.25 0 0 1-2.5 0Z" fill="#fff"/></svg>
